X:1
T:La Minor, Doh, Fa II
R:jig
M:6/8
L:1/8
K:Am
P:A
"Am"EAB cBA|EAB cBA|EAB cBA|e3-edc|\
"E7"B2e B2e | Bee e3 | "Dm"efe "E7"dcB |1 "Am"cAA "E"A2G:|2 "Am"A3 "Bdim(G7)"_A3 ||
K: C
P: B
|: "C"G3 EGc | e3-e2 g | e2d c2d | "F"A6 |\
"F" A2B "F#dim"cBA | "C/G"GEG "Am"e3 | "Dm"G2G "G"GAB |1 "C"c3-c2 "G"A :|2 "C"c3 "C7"_B3||
K: F
P: C
|: "F" A3 AFA | d3 "F"c3 | A2A AFA| "Gm" B3-B2 A |\
"C7" B3 BGB | "C7"e3 d3 | "C"c2c c=Bc | dcB "F"A2G |
"F" A2A AFA | d3 c3 | A2A AcA | "Bb"B3-B2 c |\
"Bb" d2d "Bdim"d^cd | "F "c2c "Dm"c2d | "Gm"edc "C7" BAG |1"F"FAc f2 "C" G :|2"F Fine" F3 "E7"E3 |]

